src/images/sass.svg

<?xml version="1.0" encoding="UTF-8"?>
<svg width="99px" height="74px" viewBox="0 0 99 74" version="1.1" xmlns="http://www.w3.org/2000/svg" xmlns:xlink="http://www.w3.org/1999/xlink">
    <!-- Generator: Sketch 51.3 (57544) - http://www.bohemiancoding.com/sketch -->
    <title>sass</title>
    <desc>Created with Sketch.</desc>
    <defs></defs>
    <g id="Welcome" stroke="none" stroke-width="1" fill="none" fill-rule="evenodd">
        <g id="Desktop-HD" transform="translate(-932.000000, -945.000000)" fill="#CC6699" fill-rule="nonzero">
            <g id="Group-3" transform="translate(0.000000, 587.000000)">
                <g id="sass" transform="translate(932.000000, 358.000000)">
                    <path d="M46.6022952,43.0802121 C47.9309123,43.3015949 48.5214089,44.0395373 48.2261606,45.3678337 C47.4142279,48.5409861 46.454671,51.6403443 45.8641745,54.887291 C45.7165504,55.6990277 45.6427383,56.4369701 45.7903624,57.3225011 C46.2332348,57.2487068 46.3070469,56.8797356 46.454671,56.5845586 C49.1119054,51.5665501 51.2524553,46.3271588 53.5406293,41.1615618 C54.4263741,39.1691172 55.0906827,37.2504669 55.5335551,35.1842281 C55.6811792,34.6676684 55.9764275,34.3724914 56.4931119,34.224903 C57.8217291,33.8559317 59.2979704,33.634549 60.7003996,33.8559317 C61.8813927,34.0773145 62.250453,34.5938742 61.8075806,35.7745821 C60.9218358,38.0622036 60.6265876,40.4236194 61.06946,42.8588294 C61.2170841,43.8181546 61.5861444,44.7036855 62.0290168,45.5892164 C62.250453,46.0319819 62.4718892,46.1057761 62.7671375,45.6630106 C64.9076874,41.7519157 67.4911097,38.0622036 68.5982906,33.634549 C69.1149751,31.2731332 69.2625992,31.199339 71.9198336,30.9779563 C72.5841422,30.9779563 73.1746387,30.904162 73.8389473,30.9779563 C75.0937524,31.1255447 75.4628127,31.7158987 75.0199403,32.8966066 C74.2080076,35.1842281 73.8389473,37.4718496 74.2818197,39.9070597 C74.5770679,41.4567388 75.3890007,42.7850352 76.0533092,44.1133315 C76.2747454,44.556097 76.5699937,44.4823027 76.939054,44.3347143 C79.2272281,43.3015949 81.5892141,42.7112409 84.0988244,42.5636524 C89.5609172,42.3422697 94.3587015,43.6705661 97.5326203,48.5409861 C99.0826736,50.9761961 99.5993581,53.6327889 98.1231168,56.3631759 C97.3111841,57.8390608 96.056379,58.8721802 94.5063256,59.4625341 C94.1372653,59.6101226 93.6943929,59.7577111 93.4729567,59.3149456 C93.2515205,58.8721802 93.6943929,58.7245917 93.9158291,58.5032089 C97.6802444,55.6990277 97.6802444,51.5665501 93.9158291,48.6885746 C91.7752792,47.0651013 89.4132931,46.3271588 86.7560587,46.1057761 C83.8773882,45.8105991 80.9987176,45.8843934 78.1938591,46.9175128 C77.6033626,47.1388955 77.4557385,47.3602782 77.6771747,47.9506322 C79.3010401,52.452081 77.3081144,55.1086738 73.8389473,57.3962953 C72.7317663,58.1342377 71.5507733,58.5770032 70.2959681,58.9459744 C67.7125459,59.6839168 66.1624925,58.2818262 66.6791769,55.6252335 C67.1220493,53.1900234 68.4506665,51.1975789 70.074532,49.3527228 C70.5174043,48.9099573 70.9602767,48.3933976 71.4031491,48.0244264 C71.7722095,47.7292494 72.2150818,47.5078667 72.2888939,47.1388955 C72.2888939,46.8437185 70.9602767,45.7368049 69.5578475,39.8332654 C69.1149751,40.6450021 68.6721027,41.4567388 68.1554183,42.3422697 C66.9744252,44.4823027 64.0957547,49.0575458 64.0219426,49.3527228 C63.9481305,49.6478998 64.0219426,49.9430767 64.1695667,50.2382537 C64.538627,51.1237846 64.7600632,52.0831098 64.8338753,53.0424349 C65.2029356,56.6583529 63.5052581,59.0935629 60.4051514,60.7170362 C58.4860377,61.6763614 56.4931119,62.3405096 54.352562,62.2667153 C53.4668172,62.2667153 52.6548845,62.0453326 52.2120121,61.2335959 C51.8429518,60.4218593 52.1382001,59.6839168 52.6548845,59.0197686 C54.27875,57.0273241 55.9764275,55.0348795 57.6002929,52.9686407 C58.5598498,51.7879328 58.9289101,51.2713731 58.9289101,50.6810192 C58.9289101,50.1644595 57.2312326,48.0982207 56.1240516,42.7850352 C55.5335551,44.1871258 54.9430585,45.5892164 54.352562,46.9175128 C52.3596363,51.4927558 50.0714622,55.9204104 47.6356641,60.2742708 C47.1189796,61.2335959 46.454671,62.1191269 45.5689262,62.783275 C43.7974367,64.3329541 41.878323,63.7426002 41.2140144,61.4549787 C40.8449541,60.1266823 40.6973299,58.7245917 40.9187661,57.3225011 C40.9187661,57.3225011 40.9925782,56.6583529 40.9187661,56.5845586 C39.9592093,58.6507974 39.1472766,60.643242 38.0400956,62.5618923 C37.1543508,64.0377772 36.0471698,65.1446908 34.1280561,64.9233081 C33.1684993,64.8495139 32.4303786,64.4805426 31.8398821,63.7426002 C30.2898287,61.7501556 29.6255201,59.4625341 29.3302719,56.9535298 C29.0350236,54.3707313 29.5517081,51.7879328 30.1422046,49.2789285 C30.2160166,48.9837516 30.3636408,48.7623688 30.2898287,48.3196034 C28.7397753,49.2051343 27.189722,50.1644595 25.6396686,51.0499904 C25.1967962,51.3451674 25.3444203,51.6403443 25.4182324,52.0093155 C27.189722,57.4700895 26.5254134,62.6356866 23.2038704,67.3585181 C20.7680723,70.8268475 17.3727173,72.9668806 13.1654295,73.7786173 C12.9439934,73.8524115 12.6487451,73.9262058 12.4273089,74 C11.2463158,74 10.1391349,74 8.95814182,74 C8.88432976,73.9262058 8.81051769,73.9262058 8.66289356,73.8524115 C5.26753855,73.0406748 3.56986105,70.974436 3.49604898,67.5061066 C3.34842485,63.7426002 5.04610236,60.8646247 7.70333671,58.4294147 C10.9510676,55.477645 14.6416709,53.2638177 18.4798983,51.2713731 C19.5132672,50.7548134 19.5132672,50.6810192 18.5537103,49.9430767 C16.7084087,48.6147804 14.8631071,47.286484 13.0178054,45.9581876 C10.2129469,44.0395373 7.48190051,41.9732985 5.11991442,39.5380885 C2.83174039,37.2504669 1.13406289,34.5200799 0.248318106,31.3469275 C-1.30173527,24.1888859 4.75085409,19.0970831 8.81051769,15.407371 C12.2796848,12.1604243 16.2655363,9.5038315 20.399012,7.29000421 C26.1563531,4.26444024 32.0613183,1.68164173 38.55678,0.500933837 C39.5163369,0.353345351 47.3404158,-1.04874527 54.4263741,1.60784748 C57.1574205,2.71476113 59.6670307,4.26444024 61.06946,6.99482723 C62.6933254,10.0203912 62.6195133,13.1935437 61.6599565,16.3666961 C59.7408428,22.4916183 55.7549913,26.9192729 50.2928984,30.0186311 C46.0856107,32.3800469 41.4354506,33.5607548 36.6376663,33.929726 C33.6113717,34.1511087 30.585077,34.0773145 27.7802185,32.8966066 C26.1563531,32.2324584 24.7539238,31.199339 23.7205549,29.7972484 C23.3514946,29.3544829 23.1300584,28.8379232 22.9824342,28.2475693 C22.9086222,27.878598 22.8348101,27.5096268 23.2038704,27.2882441 C23.5729308,27.0668614 23.794367,27.3620383 24.0158032,27.5834211 C26.5992254,30.2400138 29.8469563,30.8303678 33.3161234,30.5351908 C39.3687128,30.0924253 44.9046177,28.0999808 49.7024019,24.3364744 C52.2858242,22.3440298 54.352562,19.982614 55.8288033,17.0308443 C56.4192999,15.7763422 56.7883602,14.4480458 56.8621722,13.0459552 C57.0836084,10.5369509 55.7549913,8.4707121 53.245381,7.36379845 C50.2190864,6.03550207 47.0451676,5.81411934 43.7974367,6.10929632 C32.7994389,7.14241572 23.4991187,12.08663 14.9369191,18.6543176 C12.7225572,20.3515852 10.8772555,22.417824 9.40101421,24.8530341 C7.03902812,29.5758656 7.55571258,34.224903 11.39394,38.2097921 C13.6083019,40.5712079 16.2655363,42.4160639 18.8489586,44.4085085 C20.2513878,45.5154221 21.7276291,46.69613 22.9824342,48.0244264 C23.3514946,48.4671919 23.7205549,48.4671919 24.2372394,48.1720149 C27.0420978,46.6223358 29.9207684,45.0726567 32.7256269,43.5229776 C33.1684993,43.3015949 33.3899355,43.0064179 33.6851837,42.6374467 C35.3090492,40.7187963 37.0805387,39.0215288 39.3687128,37.9884094 C39.8853972,37.7670266 40.4020817,37.5456439 40.9187661,37.4718496 C43.2807522,36.8814957 44.9784297,38.0622036 45.1998659,40.4974136 C45.1998659,40.7925906 45.1998659,41.0877676 45.1998659,41.3829445 C45.1998659,41.3829445 45.1998659,43.0064179 45.0522418,43.8919488 C45.4951142,42.8588294 46.6022952,43.0802121 46.6022952,43.0802121 Z M22.687186,55.9942047 C22.760998,55.2562622 22.6133739,54.2969371 22.3919377,53.3376119 C22.3181257,52.9686407 22.1705015,52.747258 21.7276291,53.0424349 C18.3322741,55.1086738 14.9369191,57.1749126 12.2796848,60.2004765 C10.8034435,61.8977441 9.84388661,63.8163944 10.0653228,66.1778102 C10.1391349,67.3585181 10.8772555,68.0964605 12.0582486,68.244049 C12.574933,68.3178433 13.0178054,68.244049 13.4606778,68.1702548 C18.6275224,66.9895469 22.687186,61.7501556 22.687186,55.9942047 Z M34.5709285,54.6659083 C34.5709285,55.4038507 34.5709285,56.0679989 34.7185526,56.8059413 C34.8661768,57.5438838 34.7923647,58.5770032 35.6781095,58.7245917 C36.4900422,58.8721802 36.7852905,57.8390608 37.0805387,57.2487068 C38.482968,54.5183198 39.4425248,51.6403443 40.5497058,48.8361631 C41.2878265,46.9175128 41.952135,44.9250682 42.3211954,42.8588294 C42.3950074,42.4160639 42.5426316,41.8995042 42.1735712,41.6043273 C41.7306988,41.235356 41.2878265,41.4567388 40.8449541,41.6781215 C40.2544575,41.8995042 39.8115851,42.2684755 39.3687128,42.7112409 C36.268606,46.0319819 34.7923647,50.0906652 34.5709285,54.6659083 Z M73.9865714,50.6072249 C73.9865714,50.312048 73.9865714,50.016871 73.9865714,49.721694 C73.9127594,49.2051343 73.7651352,48.9837516 73.2484508,49.426517 C71.6245853,50.9761961 70.6650285,52.8210522 70.074532,54.9610853 C70.0007199,55.1086738 69.9269078,55.3300565 70.148344,55.477645 C70.3697802,55.6252335 70.5912164,55.477645 70.7388405,55.4038507 C72.8055784,54.5921141 73.9865714,52.8210522 73.9865714,50.6072249 Z M56.0502395,58.8721802 C58.0431653,58.5770032 61.143272,55.3300565 60.5527755,53.6327889 C59.1503463,55.4038507 57.747917,57.1011183 56.0502395,58.8721802 Z" id="Shape"></path>
                </g>
            </g>
        </g>
    </g>
</svg>

<svg width="99" height="74" xmlns="http://www.w3.org/2000/svg"><path d="M46.602 43.08c1.329.222 1.92.96 1.624 2.288-.812 3.173-1.771 6.272-2.362 9.52-.147.811-.221 1.549-.074 2.435.443-.074.517-.443.665-.738 2.657-5.018 4.797-10.258 7.086-15.423.885-1.993 1.55-3.912 1.993-5.978.147-.516.442-.812.96-.96 1.328-.368 2.804-.59 4.206-.368 1.181.221 1.55.738 1.108 1.919-.886 2.287-1.181 4.649-.739 7.084.148.96.517 1.845.96 2.73.221.443.443.517.738.074 2.14-3.911 4.724-7.6 5.831-12.028.517-2.362.665-2.436 3.322-2.657.664 0 1.255-.074 1.919 0 1.255.148 1.624.738 1.18 1.919-.811 2.287-1.18 4.575-.737 7.01.295 1.55 1.107 2.878 1.771 4.206.222.443.517.37.886.222a20.037 20.037 0 0 1 7.16-1.771c5.462-.222 10.26 1.107 13.434 5.977 1.55 2.435 2.066 5.092.59 7.822-.812 1.476-2.067 2.51-3.617 3.1-.369.147-.812.295-1.033-.148-.221-.443.221-.59.443-.812 3.764-2.804 3.764-6.936 0-9.814-2.14-1.624-4.503-2.362-7.16-2.583-2.879-.295-5.757-.222-8.562.812-.59.22-.738.442-.517 1.033 1.624 4.501-.369 7.158-3.838 9.445-1.107.738-2.288 1.181-3.543 1.55-2.583.738-4.134-.664-3.617-3.32.443-2.436 1.772-4.428 3.396-6.273.442-.443.885-.96 1.328-1.329.37-.295.812-.516.886-.885 0-.295-1.329-1.402-2.731-7.306-.443.812-.886 1.624-1.403 2.51-1.18 2.14-4.06 6.715-4.133 7.01-.074.295 0 .59.148.885.369.886.59 1.845.664 2.804.369 3.616-1.329 6.052-4.429 7.675-1.919.96-3.912 1.624-6.052 1.55-.886 0-1.698-.222-2.141-1.033-.369-.812-.074-1.55.443-2.214 1.624-1.993 3.321-3.985 4.945-6.051.96-1.181 1.329-1.698 1.329-2.288 0-.517-1.698-2.583-2.805-7.896a231.74 231.74 0 0 1-1.771 4.133c-1.993 4.575-4.282 9.002-6.717 13.356-.517.96-1.181 1.845-2.067 2.51-1.772 1.549-3.69.959-4.355-1.329-.369-1.328-.517-2.73-.295-4.132 0 0 .074-.665 0-.738-.96 2.066-1.772 4.058-2.879 5.977-.886 1.476-1.993 2.583-3.912 2.361-.96-.073-1.698-.442-2.288-1.18-1.55-1.993-2.214-4.28-2.51-6.79-.295-2.582.222-5.165.812-7.674.074-.295.222-.517.148-.96-1.55.886-3.1 1.845-4.65 2.731-.443.295-.296.59-.222.96 1.772 5.46 1.107 10.626-2.214 15.349-2.436 3.468-5.831 5.608-10.039 6.42-.221.073-.516.147-.738.221H8.958c-.074-.074-.147-.074-.295-.148-3.395-.811-5.093-2.878-5.167-6.346-.148-3.763 1.55-6.641 4.207-9.077 3.248-2.951 6.939-5.165 10.777-7.158 1.033-.516 1.033-.59.074-1.328l-5.536-3.985c-2.805-1.918-5.536-3.985-7.898-6.42C2.832 37.25 1.134 34.52.248 31.347c-1.55-7.158 4.503-12.25 8.563-15.94 3.469-3.247 7.455-5.903 11.588-8.117C26.156 4.264 32.061 1.682 38.557.5c.96-.147 8.783-1.549 15.87 1.108 2.73 1.107 5.24 2.656 6.642 5.387 1.624 3.025 1.55 6.199.591 9.372-1.92 6.125-5.905 10.552-11.367 13.652-4.207 2.361-8.858 3.542-13.655 3.91-3.027.222-6.053.148-8.858-1.032-1.624-.665-3.026-1.698-4.06-3.1-.369-.443-.59-.96-.738-1.55-.073-.368-.147-.737.222-.959.369-.221.59.074.812.295 2.583 2.657 5.831 3.247 9.3 2.952 6.053-.443 11.589-2.435 16.386-6.199 2.584-1.992 4.65-4.353 6.127-7.305.59-1.255.96-2.583 1.033-3.985.222-2.509-1.107-4.575-3.617-5.682-3.026-1.328-6.2-1.55-9.448-1.255C32.8 7.142 23.5 12.087 14.937 18.654A22.289 22.289 0 0 0 9.4 24.853c-2.362 4.723-1.845 9.372 1.993 13.357 2.214 2.361 4.872 4.206 7.455 6.199 1.402 1.106 2.879 2.287 4.133 3.615.37.443.739.443 1.255.148 2.805-1.55 5.684-3.1 8.489-4.649.442-.221.664-.517.96-.886 1.623-1.918 3.395-3.615 5.683-4.649.516-.221 1.033-.442 1.55-.516 2.362-.59 4.06.59 4.28 3.025v.886s0 1.623-.147 2.509c.443-1.033 1.55-.812 1.55-.812zM22.687 55.994c.074-.738-.074-1.697-.295-2.656-.074-.37-.221-.59-.664-.296-3.396 2.067-6.791 4.133-9.448 7.158-1.477 1.698-2.436 3.616-2.215 5.978.074 1.18.812 1.918 1.993 2.066.517.074.96 0 1.403-.074 5.167-1.18 9.226-6.42 9.226-12.176zm11.884-1.328c0 .738 0 1.402.148 2.14.147.738.073 1.771.96 1.919.811.147 1.106-.886 1.402-1.476 1.402-2.73 2.362-5.609 3.469-8.413.738-1.918 1.402-3.91 1.771-5.977.074-.443.222-.96-.147-1.255-.443-.369-.886-.147-1.329.074-.59.222-1.033.59-1.476 1.033-3.1 3.321-4.577 7.38-4.798 11.955zm39.416-4.059v-.885c-.074-.517-.222-.738-.739-.295-1.623 1.55-2.583 3.394-3.173 5.534-.074.148-.148.37.073.517.222.147.443 0 .59-.074 2.068-.812 3.249-2.583 3.249-4.797zM56.05 58.872c1.993-.295 5.093-3.542 4.503-5.24-1.403 1.772-2.805 3.47-4.503 5.24z" fill="#C69" fill-rule="nonzero"/></svg>
